X:4333
T:Monaghan Hills
O:england
R:reel
C:Ed Reavy
M:2/2
L:1/8
N:One of his tunes had to pay tribute to these hills;
N:not the Fork Hill region that Paddy Kavanaugh celebrated,
N:but the same nearby hills of Monaghan that Ed's mother
N:and his Aunt Ann spoke of in childhood stories. Ed's
N:mother played no musical instrument,
N:but she could "lyddle" all the great
N:tunes of her region. This love of the tradition she
N:passed on to Ed.
K:G
DG (3GFG BGAB|cABc dfeg|(3fga fd ^cdec|AB=cA FGAF|
G2 Bd cAFA|GABd cABc|(3dcB (3cBA fdBd|1cAFA G3 F:|
2cAFA G3 f||g2 bg BcdB|cbag fdde|f2 af ABcB|
cbag fddf|g2 dg Bgdg|cBAG FGAB|(3dcB (3cBA BGAG|
1FGAc BGGf:|FGAc BGGF||
